!!!COM: Joplin, Scott
!!!CDT: 1868/11/24/-1917/04/01/
!!!OTL: Sugar Cane
!!!ONB: Ragtime Two-Step
!!!ODT: 1908///
!!!PPR: Seminary Music Co. 
!!!PPP: 112 W. 38th St. N.Y.
!!!PDT: 1908///
!!!ENC: Craig Stuart Sapp
!!!END: 2004/06/08/
!!!YEC: Copyright 2004 by Craig Stuart Sapp
**kern	**kern	**dynam
*staff2	*staff1	*staff1
*clefF4	*clefG2	*clefG2
*Ipiano	*Ipiano	*Ipiano
*>[I,A,A1,A,A2,B,B1,B,B2,C,D,D1,D,D2,E,E1,E,E2]	*>[I,A,A1,A,A2,B,B1,B,B2,C,D,D1,D,D2,E,E1,E,E2]	*>[I,A,A1,A,A2,B,B1,B,B2,C,D,D1,D,D2,E,E1,E,E2]
*>norep[I,A,A2,B,B2,C,D,D2,E,E2]	*>norep[I,A,A2,B,B2,C,D,D2,E,E2]	*>norep[I,A,A2,B,B2,C,D,D2,E,E2]
*>I	*>I	*>I
*k[b-e-]	*k[b-e-]	*k[b-e-]
*B-:	*B-:	*B-:
*M2/4	*M2/4	*M2/4
*MM100	*MM100	*MM100
8FF/ 8F/	8r	.
=1!|:	=1!|:	=1!|:
*>A	*>A	*>A
8BB-\ 8B-\L	16r	.
.	(16dd/LL	mf
8F\ 8B-\ 8d\J	16f/	.
.	16b-/JJ	.
8F\ 8f\L	16dd\LL	.
.	16ff\	.
8D\ 8d\J	16bb-\	.
.	16ddd\JJ)	.
=2	=2	=2
8C\ 8c\L	(16fff\LL	.
.	16ggg\	.
8F\ 8A\ 8e-\J	16fff\	.
.	16eee-\JJ	.
8F\ 8A\ 8e-\L	16ccc\LL	.
.	16aa\	.
8FF\ 8F\J	16gg\	.
.	16ff\JJ)	.
=3	=3	=3
8BB-\ 8B-\L	16r	.
.	(16dd\LL	.
8F\ 8B-\ 8d\J	16f\	.
.	16b-\JJ	.
8F\ 8f\L	16dd\LL	.
.	16ff\	.
8D\ 8d\J	16bb-\	.
.	16ddd\JJ)	.
=4	=4	=4
8C\ 8c\L	(16fff\LL	.
.	16ggg\	.
8F\ 8A\ 8e-\J	16fff\	.
.	16eee-\JJ	.
8F\ 8A\ 8e-\L	16ccc\LL	.
.	16aa\	.
8FF\ 8F\J	16gg\	.
.	16ff\JJ)	.
=5	=5	=5
8E-\L	8e-/L	.
(16G-\L	(16g-/L	.
16E-\JJ	16e-/JJ	.
8D\L	8d/L	.
8F\J)	8f/J)	.
=6	=6	=6
8E-\L	8e-/L	.
(16G-\L	(16g-/L	.
16E-\JJ	16e-/JJ	.
8D/L	8d/L	.
8FF/J)	8F/J)	.
=7	=7	=7
(8EEn/L	16r	.
.	(16G/LL	.
8BB-/J	16c#/	.
.	16g/JJ)	.
8En\L	16r	.
.	(16g\LL	.
8B-\J)	16cc#\	.
*clefG2	*	*
.	16gg\JJ)	.
=8	=8	=8
(8en/L	16r	.
.	(16gg\LL	.
8b-/J)	16ccc#\	.
.	16eeen\JJ)	.
8een\	8gg\ 8ccc#\ 8ggg\L	.
8r	16r	.
.	[16ff\ [16bb-\ [16ddd\ [16fff\Jk	.
=9	=9	=9
8d/ 8f/ 8b-/L	16ff\] 16bb-\] 16ddd\] 16fff\LL]	.
.	16bb-\ 16ddd\	.
8e-/ 8g/ 8b-/J	16gg\ 16ggg\	.
.	16bb-\JJ	.
8e-/ 8g-/ 8b-/L	16eee-\LK	.
.	8gg-\ 8ggg-\	.
8e-/ 8g-/ 8b-/J	.	.
.	[16ff\ [16bb-\ [16ddd\ [16fff\Jk	.
=10	=10	=10
8d/ 8f/ 8b-/L	16ff\] 16bb-\] 16ddd\] 16fff\LL]	.
.	16bb-\ 16ddd\	.
8c#/ 8g/ 8b-/J	16een\ 16eeen\	.
.	16bb-\JJ	.
8d/ 8f/ 8b-/L	16ddd\LK	.
.	8ff\ 8fff\	.
8d/ 8f/ 8b-/J	.	.
.	[16aa\ [16fff\Jk	.
=11	=11	=11
8c/ 8f/ 8a/L	16aa\] 16fff\LL]	.
.	16eee-\	.
8c/ 8f/ 8a/J	16aa\ 16fff\	.
.	16ccc\JJ	.
8c/ 8f/ 8a/L	16eee-\LK	.
.	8aa\ 8fff\	.
8c/ 8f/ 8a/J	.	.
.	[16bb-\ [16ddd\ [16bbb-\Jk	.
=12	=12	=12
8d\ 8f\ 8b-\L	8bb-\] 8ddd\] 8bbb-\L]	.
*clefF4	*	*
8E-\ 8e-\J	8g\ 8b-\ 8gg\J	.
8D\ 8d\L	8f\ 8b-\ 8ff\L	.
8C#\ 8c#\J	16en\ 16b-\ 16een\L	.
.	[16f\ [16b-\ [16dd\ [16ff\JJ	.
=13	=13	=13
8D\ 8F\ 8B-\L	16f\] 16b-\] 16dd\] 16ff\LL]	.
.	16b-\ 16dd\	.
8E-\ 8G\ 8B-\J	16g\ 16gg\	.
.	16b-\JJ	.
8E-\ 8G-\ 8B-\L	16ee-\LK	.
.	8g-\ 8gg-\	.
8E-\ 8G-\ 8B-\J	.	.
.	[16f\ [16b-\ [16dd\ [16ff\Jk	.
=14	=14	=14
8D\ 8F\ 8B-\L	16f\] 16b-\] 16dd\] 16ff\LL]	.
.	16b-\ 16dd\	.
8C#\ 8G\ 8B-\J	16en\ 16een\	.
.	16b-\JJ	.
8D\ 8F\ 8B-\L	16dd\LK	.
.	8.f\ 8.ff\J	.
8F\ 8B-\ 8d\J	.	.
=15	=15	=15
*>A1	*>A1	*>A1
8C\ 8c\L	16r	.
.	(16ee-\LL	.
8F\ 8A\ 8e-\J	16a\ 16ff\	.
.	16cc\JJ	.
8FF\ 8F\L	16ee-\LK)	.
.	8a\ 8ff\	.
8F\ 8A\ 8e-\J	.	.
.	[16b-\ [16dd\ [16bb-\Jk	.
=16	=16	=16
8BB-\ 8B-\L	4b-\_ 4dd\_ 4bb-\_	.
8DD\ 8D\	.	.
8GG\ 8G\	8b-\] 8dd\] 8bb-\]	.
8FF\ 8F\J	8r	.
=17:|!	=17:|!	=17:|!
*>A2	*>A2	*>A2
8C\ 8c\L	16r	.
.	(16ee-\LL	.
8F\ 8A\ 8e-\J	16a\ 16ff\	.
.	16cc\JJ)	.
8FF\ 8F\L	16ee-\LK	.
.	8a\ 8ff\	.
8F\ 8A\ 8e-\J	.	.
.	[16b-\ [16dd\ [16bb-\Jk	.
=18	=18	=18
8BB-\ 8B-\	8b-\] 8dd\] 8bb-\]	.
8r	8f/L	.
8D\ 8d\L	8b-/	.
8BBn\ 8Bn\J	8g#/J	.
=19!|:	=19!|:	=19!|:
*>B	*>B	*>B
8C\ 8c\L	(16a\LL	f
.	16ee-\	.
8F\ 8A\ 8e-\J	16aa\	.
.	[16gg\JJ)	.
8FF\ 8F\L	16gg\LL]	.
.	(16cc\	.
8F\ 8A\ 8e-\J	16ee-\	.
.	16ccc\JJ)	.
=20	=20	=20
8C\ 8c\L	(16ee-\LL	.
.	16aa\	.
8F\ 8A\ 8e-\J	16eee-\	.
.	[16ddd\JJ	.
8FF\ 8F\L	16ddd\LL]	.
.	16aa\	.
8F\ 8A\ 8e-\J	16ccc\)	.
.	16aa\ 16aaa\JJ	.
=21	=21	=21
8BB-\ 8B-\L	8bb-\ 8ddd\ 8bbb-\L	.
8F\ 8B-\ 8d\J	8gg\ 8bb-\ 8ddd\ 8ggg\J	.
8FF\ 8F\L	8ff\ 8bb-\ 8ddd\ 8fff\L	.
8F\ 8B-\ 8d\J	16cc#\ 16ccc#\L	.
.	[16dd\ [16ddd\JJ	.
=22	=22	=22
8BB-\ 8B-\L	16dd\] 16ddd\LL]	.
.	16f\ 16ff\	.
8F\ 8B-\ 8d\J	16f#\ 16ff#\	.
.	[16g\ [16gg\JJ	.
8FF\ 8F\L	16g\] 16gg\LL]	.
.	16b-\ 16dd\J	.
8F\ 8B-\ 8d\J	8fn\ 8ffn\J	.
=23	=23	=23
8C\ 8c\L	8aa\ 8eee-\ 8aaa\L	.
8F\ 8A\ 8e-\J	8gg\ 8eee-\ 8ggg\J	.
8FF\ 8F\L	8ff\ 8eee-\ 8fff\L	.
8F\ 8A\ 8e-\J	16dd\ 16ddd\L	.
.	[16ee-\ [16eee-\JJ	.
=24	=24	=24
8C\ 8c\L	16ee-\] 16eee-\LL]	.
.	16f\ 16ff\	.
8F\ 8A\ 8e-\J	16f#\ 16ff#\	.
.	[16g\ [16gg\JJ	.
8FF\ 8F\L	16g\] 16gg\LL]	.
.	16a\ 16ee-\J	.
8F\ 8A\ 8e-\J	8fn\ 8ffn\J	.
=25	=25	=25
8BB-\ 8B-\L	8bb-\ 8ddd\ 8bbb-\L	.
8F\ 8B-\ 8d\J	8gg\ 8bb-\ 8ddd\ 8ggg\J	.
8FF\ 8F\L	8ff\ 8bb-\ 8ddd\ 8fff\L	.
8F\ 8B-\ 8d\J	16cc#\ 16ccc#\L	.
.	[16dd\ [16ddd\JJ	.
=26	=26	=26
8BB-\ 8B-\L	16dd\] 16ddd\LL]	.
.	16f\ 16ff\	.
8F\ 8B-\ 8d\J	16f#\ 16ff#\	.
.	[16g\ [16gg\JJ	.
8FF\ 8F\L	16g\] 16gg\LL]	.
.	16b-\ 16dd\J	.
8F\ 8B-\ 8d\J	8fn\ 8ffn\J	.
=27	=27	=27
8C\ 8c\L	(16a\LL	.
.	16ee-\	.
8F\ 8A\ 8e-\J	16aa\	.
.	[16gg\JJ)	.
8FF\ 8F\L	16gg\LL]	.
.	(16cc\	.
8F\ 8A\ 8e-\J	16ee-\	.
.	16ccc\JJ)	.
=28	=28	=28
8C\ 8c\L	(16ee-\LL	.
.	16aa\	.
8F\ 8A\ 8e-\J	16eee-\	.
.	[16ddd\JJ)	.
8FF\ 8F\L	16ddd\LL]	.
.	16aa\	.
8F\ 8A\ 8e-\J	16ccc\	.
.	16aa\ 16aaa\JJ	.
=29	=29	=29
8BB-\ 8B-\L	8bb-\ 8ddd\ 8bbb-\L	.
8F\ 8B-\ 8d\J	8gg\ 8bb-\ 8ddd\ 8ggg\J	.
8FF\ 8F\L	8ff\ 8bb-\ 8ddd\L	.
8F\ 8B-\ 8d\J	16cc#\ 16ccc#\L	.
.	[16dd\ [16ddd\JJ	.
=30	=30	=30
8BB-\ 8B-\L	16dd\] 16ddd\LL]	.
.	16f\ 16ff\	.
8F\ 8B-\ 8d\J	16f#\ 16ff#\	.
.	[16g\ [16gg\JJ	.
8FF\ 8F\L	16g\] 16gg\LL]	.
.	16b-\ 16dd\J	.
8F\ 8B-\ 8d\J	8fn\ 8ffn\J	.
=31	=31	=31
8A-\ 8B-\ 8d\ 8f\L	16dd\LK	mp
.	8cc\	.
8A-\ 8B-\ 8d\ 8f\J	.	.
.	[16b-\Jk	.
8A-\ 8B-\ 8d\ 8f\L	(16b-\LL]	.
.	16cc\J	.
8A-\ 8B-\ 8d\ 8f\J	8b-\J)	.
=32	=32	=32
8G\ 8B-\ 8e-\L	16dd\LK	.
.	8cc\	.
8G\ 8B-\ 8e-\J	.	.
.	[16b-\Jk	.
8G-\ 8B-\ 8e-\L	(16b-\LL]	.
.	16cc\J	.
8G-\ 8B-\ 8e-\J	8b-\J)	.
=33	=33	=33
8F\ 8B-\ 8d\L	16b-\LK	.
.	8cc\	.
8F\ 8B-\ 8d\J	.	.
.	[16dd\Jk	.
8F\ 8B-\ 8d\L	(16dd\LL]	.
.	16gg\J	.
8F\ 8B-\ 8d\J	8ff\J)	.
=34	=34	=34
*>B1	*>B1	*>B1
8GG/ 8G/L	8en/ 8b-/L	.
8FF/ 8F/J	8e-/ 8a/ 8cc/J	.
8BB-\ 8B-\L	8d/ 8b-/L	.
8BBn\ 8Bn\J	8g#/J	.
=35:|!	=35:|!	=35:|!
*>B2	*>B2	*>B2
8GG/ 8G/L	8en/ 8b-/L	.
8FF/ 8F/J	8e-/ 8a/ 8cc/J	.
8BB-\ 8B-\L	8d/ 8b-/	.
8FF\ 8F\J	8r	.
=36	=36	=36
*>C	*>C	*>C
8BB-\ 8B-\L	16r	.
.	(16dd\LL	mf
8F\ 8B-\ 8d\J	16f\	.
.	16b-\JJ	.
8F\ 8f\L	16dd\LL	.
.	16ff\	.
8D\ 8d\J	16bb-\	.
.	16ddd\JJ)	.
=37	=37	=37
8C\ 8c\L	(16fff\LL	.
.	16ggg\	.
8F\ 8A\ 8e-\J	16fff\	.
.	16eee-\JJ	.
8F\ 8A\ 8e-\L	16ccc\LL	.
.	16aa\	.
8FF\ 8F\J	16gg\	.
.	16ff\JJ)	.
=38	=38	=38
8BB-\ 8B-\L	16r	.
.	(16dd\LL	.
8F\ 8B-\ 8d\J	16f\	.
.	16b-\JJ	.
8F\ 8f\L	16dd\LL	.
.	16ff\	.
8D\ 8d\J	16bb-\	.
.	16ddd\JJ)	.
=39	=39	=39
8C\ 8c\L	(16fff\LL	.
.	16ggg\	.
8F\ 8A\ 8e-\J	16fff\	.
.	16eee-\JJ	.
8F\ 8A\ 8e-\L	16ccc\LL	.
.	16aa\	.
8FF\ 8F\J	16gg\	.
.	16ff\JJ)	.
=40	=40	=40
8E-\L	8e-/L	.
(16G-\L	(16g-/L	.
16E-\JJ	16e-/JJ	.
8D\L	8d/L	.
8F\J)	8f/J)	.
=41	=41	=41
8E-\L	8e-/L	.
(16G-\L	(16g-/L	.
16E-\JJ	16e-/JJ	.
8D/L	8d/L	.
8FF/J)	8F/J)	.
=42	=42	=42
(8EE-/L	16r	.
.	(16G/LL	.
8BB-/J	16c#/	.
.	16g/JJ)	.
8En\L	16r	.
.	(16g\LL	.
8B-\J)	16cc#\	.
*clefG2	*	*
.	16gg\JJ)	.
=43	=43	=43
(8en/L	16r	.
.	(16gg\LL	.
8b-/J	16ccc#\	.
.	16eee-\JJ	.
8een\)	8gg\ 8ccc#\ 8ggg\L)	.
8r	16r	.
.	[16ff\ [16bb-\ [16ddd\ [16fff\Jk	.
=44	=44	=44
8d/ 8f/ 8b-/L	16ff\] 16bb-\] 16ddd\] 16fff\LL]	.
.	16bb-\ 16ddd\	.
8e-/ 8g/ 8b-/J	16gg\ 16ggg\	.
.	16bb-\JJ	.
8e-/ 8g-/ 8b-/L	16eee-\LK	.
.	8gg-\ 8ggg-\	.
8e-/ 8g-/ 8b-/J	.	.
.	[16ff\ [16bb-\ [16ddd\ [16fff\Jk	.
=45	=45	=45
8d/ 8f/ 8b-/L	16ff\] 16bb-\] 16ddd\] 16fff\LL]	.
.	16bb-\ 16ddd\	.
8c#/ 8g/ 8b-/J	16een\ 16eeen\	.
.	16bb-\JJ	.
8d/ 8f/ 8b-/L	16ddd\LK	.
.	8ff\ 8fff\	.
8d/ 8f/ 8b-/J	.	.
.	[16aa\ [16ggg\Jk	.
=46	=46	=46
8c/ 8f/ 8a/L	16aa\] 16ggg\LL]	.
.	16eee-\	.
8c/ 8f/ 8a/J	16aa\ 16fff\	.
.	16ccc\JJ	.
8c/ 8f/ 8a/L	16eee-\LK	.
.	8aa\ 8fff\	.
8c/ 8f/ 8a/J	.	.
.	[16bb-\ [16ddd\ [16bbb-\Jk	.
=47	=47	=47
8d\ 8f\ 8b-\L	8bb-\] 8ddd\] 8bbb-\L]	.
*clefF4	*	*
8E-\ 8e-\J	8g\ 8b-\ 8gg\J	.
8D\ 8d\L	8f\ 8b-\ 8ff\L	.
8C#\ 8c#\J	16en\ 16b-\ 16een\L	.
.	[16f\ [16b-\ [16dd\ [16ff\JJ	.
=48	=48	=48
8D\ 8F\ 8B-\L	16f\] 16b-\] 16dd\] 16ff\LL]	.
.	16b-\ 16dd\	.
8E-\ 8G\ 8B-\J	16g\ 16gg\	.
.	16b-\JJ	.
8E-\ 8G-\ 8B-\L	16ee-\LK	.
.	8g-\ 8gg-\	.
8E-\ 8G-\ 8B-\J	.	.
.	[16f\ [16b-\ [16dd\ [16ff\Jk	.
=49	=49	=49
8D\ 8F\ 8B-\L	16f\] 16b-\] 16dd\] 16ff\LL]	.
.	16b-\ 16dd\	.
8C#\ 8G\ 8B-\J	16en\ 16een\	.
.	16b-\JJ	.
8D\ 8F\ 8B-\L	16dd\LK	.
.	8.f\ 8.ff\J	.
8F\ 8B-\ 8d\J	.	.
=50	=50	=50
8C\ 8c\L	16r	.
.	16ee-\LL	.
8F\ 8A\ 8e-\J	16a\ 16ff\	.
.	16cc\JJ	.
8FF\ 8F\L	16ee-\LK	.
.	8a\ 8ff\	.
8F\ 8A\ 8e-\J	.	.
.	[16b-\ [16dd\ [16bb-\Jk	.
=51	=51	=51
8BB-\ 8B-\L	4b-\] 4dd\] 4bb-\]	.
8F\J	.	.
8BB-/	8b-\ 8dd\ 8bb-\	.
8r	8r	.
=52!|:	=52!|:	=52!|:
*>D	*>D	*>D
*k[b-e-a-]	*k[b-e-a-]	*k[b-e-a-]
*E-:	*E-:	*E-:
8FF\ 8F\L	8.dd\ 8.bb-\L	mp
8B-\ 8d\ 8a-\J	.	.
.	[16dd\ [16aa-\Jk	.
*	*^	*
8BBB-\ 8BB-\L	(16aa-/LL]	4dd\]	.
.	16gg/J	.	.
8B-\ 8d\ 8a-\J	8ff/J)	.	.
*	*v	*v	*
=53	=53	=53
8FF\ 8F\L	8.dd\ 8.bb-\L	.
8B-\ 8d\ 8a-\J	.	.
.	[16dd\ [16aa-\Jk	.
*	*^	*
8BBB-\ 8BB-\L	(16aa-/LL]	4dd\]	.
.	16gg/	.	.
8B-\ 8d\ 8a-\J	16ff/	.	.
.	16ff#/JJ)	.	.
=54	=54	=54	=54
8EE-\ 8E-\L	16gg/LL	(8ee-\L	.
.	16ccc/	.	.
8B-\ 8e-\ 8g\J	16gg/	8dd\	.
.	16ccc/JJ	.	.
8BBB-\ 8BB-\L	16gg/LL	8cc\	.
.	16ccc/	.	.
8B-\ 8e-\ 8g\J	16gg/	8dd\J)	.
.	16ccc/JJ	.	.
=55	=55	=55	=55
8EE-\ 8E-\L	(16ccc/LL	8.ee-\L	.
.	16ff/	.	.
8B-\ 8e-\ 8g\J	16ff#/	.	.
.	[16gg/JJ)	[16ee-\Jk	.
8B-\ 8e-\ 8g\L	4ryy	8ee-\] 8gg\L]	.
8EEn\ 8En\J	.	8cc\ 8bb-\J	.
*	*v	*v	*
=56	=56	=56
8FF\ 8F\L	8.dd\ 8.bb-\L	.
8B-\ 8d\ 8a-\J	.	.
.	[16dd\ [16aa-\Jk	.
*	*^	*
8BBB-\ 8BB-\L	(16aa-/LL]	4dd\]	.
.	16gg/J	.	.
8B-\ 8d\ 8a-\J	8ff/J)	.	.
*	*v	*v	*
=57	=57	=57
8FF\ 8F\L	8.dd\ 8.bb-\L	.
8B-\ 8d\ 8a-\J	.	.
.	[16dd\ [16aa-\Jk	.
*	*^	*
8BBB-\ 8BB-\L	(16aa-/LL]	4dd\]	.
.	16gg/	.	.
8B-\ 8d\ 8a-\J	16ff/	.	.
.	16ff#/JJ)	.	.
=58	=58	=58	=58
8EE-\ 8E-\L	16gg/LL	(8ee-\L	.
.	16ccc/	.	.
8B-\ 8e-\ 8g\J	16gg/	8dd\	.
.	16ccc/JJ	.	.
8BBB-\ 8BB-\L	16gg/LL	8cc\	.
.	16ccc/	.	.
8B-\ 8e-\ 8g\J	16gg/	8dd\J)	.
.	16ccc/JJ	.	.
=59	=59	=59	=59
8EE-\ 8E-\L	8.ccc/L	(16ee-\LL	.
.	.	16ff\	.
8B-\ 8e-\ 8g\J	.	16ff#\	.
.	[16bb-/Jk	16gg\JJ)	.
8EE-/ 8E-/L	4ryy	8gg\ 8bb-\L]	.
8DD-/ 8D-/J	.	8ffn\ 8bb-\J	.
*	*v	*v	*
=60	=60	=60
8CC\ 8C\L	8.een\ 8.ccc\L	.
8B-\ 8c\ 8en\J	.	.
.	[16ee\ 16bb-\Jk	.
*	*^	*
8EEn\ 8En\L	(16bb-/LL	4ee\]	.
.	16aa-/J	.	.
8B-\ 8c\ 8e\J	8gg/J)	.	.
*	*v	*v	*
=61	=61	=61
8GG\ 8G\L	8.een\ 8.ccc\L	.
8B-\ 8c\ 8en\J	.	.
.	[16ee\ [16bb-\Jk	.
*	*^	*
8CC\ 8C\L	(16bb-/LL]	4ee\]	.
.	16aa-/	.	.
8B-\ 8c\ 8e\J	16gg/	.	.
.	16ccc/JJ)	.	.
*	*v	*v	*
=62	=62	=62
8FF\ 8F\L	16r	.
.	16ccc\LL	.
8A-\ 8c\ 8f\J	16ff\ 16fff\	.
.	16aa-\JJ	.
8AA-\ 8A-\L	16ccc\LK	.
.	8gg\ 8ggg\	.
8A-\ 8c\ 8f\J	.	.
.	16aa-\Jk	.
=63	=63	=63
8FF\ 8F\L	16ff\ 16fff\LL	.
.	16aa-\	.
8A-\ 8c\ 8f\J	16ccc\	.
.	16gg\ [16ggg\JJ	.
8AA-\ 8A-\L	16gg\ 16ggg\LL]	.
.	16aa-\ 16ccc\J	.
8A-\ 8c\ 8f\J	8ff\ 8fff\J	.
=64	=64	=64
8AAn\ (8An\L	8ff#\ (8fff\L	.
8C\ 8c\	8ee-\ 8eee-\	.
8E-\ 8e-\	8cc\ 8ccc\	.
8F#\ 8f#\J)	8an\ 8aan\J)	.
=65	=65	=65
8G\ (8g\L	8.b-\ 8.ee-\ 8.gg\ (8.bb-\L	.
8E-\ 8e-\	.	.
.	16ee-\Jk	.
8BB-\ 8B-\	(16gg\LK)	.
.	8.b-\ 8.bb-\J)	.
8GG\ 8G\J)	.	.
=66	=66	=66
*>D1	*>D1	*>D1
8FF\ 8F\L	8.b-\ 8.dd\ 8.ff\ (8.bb-\L	.
8A-\ 8B-\ 8d\J	.	.
.	16dd\Jk)	.
8BBB-\ 8BB-\L	16ff\LK	.
.	8b-\ 8dd\ 8bb-\	.
8A-\ 8B-\ 8d\J	.	.
.	[16g\ [16b-\ [16ee-\Jk	.
=67	=67	=67
8EE-/ 8E-/L	4.g\] 4.b-\] 4.ee-\]	.
8GG/ 8G/	.	.
8FF/ 8F/	.	.
8EEn/ 8En/J	8cc#\ 8bb-\	.
=68	=68	=68
*>D2	*>D2	*>D2
8FF\ 8F\L	8.b-\ 8.dd\ 8.ff\ (8.bb-\L	.
8A-\ 8B-\ 8d\J	.	.
.	16dd\Jk)	.
8BBB-\ 8BB-\L	16ff\LK	.
.	8b-\ 8dd\ 8bb-\	.
8A-\ 8B-\ 8d\J	.	.
.	[16g\ [16b-\ [16ee-\Jk	.
=69	=69	=69
8EE-/ 8E-/L	4g\] 4b-\_ 4ee-\_	.
8BB-/	.	.
8EE-/	8g\ 8b-\] 8ee-\]	.
8BBB-/ 8BB-/J	8r	.
=70!|:	=70!|:	=70!|:
*k[b-e-]	*k[b-e-]	*k[b-e-]
*B-:	*B-:	*B-:
*>E	*>E	*>E
8EE-\ 8E-\L	16r	.
.	16b-\ 16ee-\LL	mf
8G\ 8B-\ 8e-\J	16g\ 16gg\	.
.	16b-\JJ	.
8BBB-\ 8BB-\L	16ee-\LK	.
.	8g\ 8gg\	.
8G\ 8B-\ 8e-\J	.	.
.	[16b-\ [16bb-\Jk	.
=71	=71	=71
8EE-\ 8E-\L	16b-\] 16bb-\LL]	.
.	16ee-\ 16gg\J	.
8G\ 8B-\ 8e-\J	8cc\ 8ccc\J	.
8GG/ 8G/L	8b-\ 8ee-\ 8bb-\L	.
8GG-/ 8G-/J	16cc\ 16ee-\ 16ccc\L	.
.	[16dd\ 16ff\ [16bb-\ [16ddd\JJ	.
=72	=72	=72
8FF\ 8F\L	8dd\] 8ff\] 8bb-\] 8ddd\L]	.
8F\ 8B-\ 8d\J	8f\ 8b-\ 8dd\ 8ff\J	.
8BB-\ 8B-\L	16en\ 16een\LK	.
.	8f\ 8b-\ 8dd\ 8ff\	.
8F\ 8B-\ 8d\J	.	.
.	[16f\ [16b-\ [16dd\ [16ff\Jk	.
=73	=73	=73
8D\ 8d\L	4.f\] 4.b-\] 4.dd\] 4.ff\]	.
8FF\ 8F\	.	.
8GG\ 8G\	.	.
8GG#\ 8G#\J	8dd\ 8ff\ 8ddd\	.
=74	=74	=74
8AA\ 8A\L	8cc\ 8ee-\ 8ccc\L	.
8F\ 8A\ 8e-\J	8f\ 8a\ 8ee-\ 8ff\J	.
8FF\ 8F\L	16en\ 16een\LK	.
.	8f\ 8a\ 8ee\ 8ff\	.
8F\ 8A\ 8e-\J	.	.
.	[16f\ [16a\ 16ee\ [16ff\Jk	.
=75	=75	=75
8C\ 8c\L	4.f\] 4.a\] 4.ee-\ 4.ff\]	.
8FF\ 8F\	.	.
8GG\ 8G\	.	.
8AA\ 8A\J	8ee-\ 8gg\ 8ccc\	.
=76	=76	=76
8BB-\ 8B-\L	8dd\ 8ff\ 8ddd\L	.
8F\ 8B-\ 8d\J	8f\ 8b-\ 8dd\ 8ff\J	.
8FF\ 8F\L	16en\ 16een\LK	.
.	8f\ 8b-\ 8dd\ 8ff\	.
8F\ 8B-\ 8d\J	.	.
.	[16f\ [16b-\ [16dd\ [16ff\Jk	.
=77	=77	=77
8BB-\ 8B-\L	2f\] 2b-\] 2dd\] 2ff\]	.
8AA-\ 8A-\	.	.
8GG\ 8G\	.	.
8FF\ 8F\J	.	.
=78	=78	=78
8EE-\ 8E-\L	16r	.
.	16b-\ 16ee-\LL	.
8G\ 8B-\ 8e-\J	16g\ 16gg\	.
.	16b-\JJ	.
8BBB-\ 8BB-\L	16ee-\LK	.
.	8g\ 8gg\	.
8G\ 8B-\ 8e-\J	.	.
.	[16b-\ [16bb-\Jk	.
=79	=79	=79
8GG\ 8G\L	16b-\] 16bb-\LL]	.
.	16ee-\ 16gg\J	.
8G\ 8B-\ 8e-\J	8cc\ 8ccc\J	.
8EE-\ 8E-\L	8b-\ 8ee-\ 8gg-\ 8bb-\L	.
8G-\ 8B-\ 8e-\J	16cc\ 16ee-\ 16gg-\ 16ccc\L	.
.	[16dd\ [16ff\ [16bb-\ [16ddd\JJ	.
=80	=80	=80
8BB-\L	8dd\] 8ff\] 8bb-\] 8ddd\L]	.
8F\ 8B-\ 8d\J	8f\ 8b-\ 8dd\ 8ff\J	.
8D\L	16en\ 16een\LK	.
.	8f\ 8b-\ 8dd\ 8ff\	.
8F\ 8B-\ 8d\J	.	.
.	[16f\ [16b-\ [16dd\ [16ff\Jk	.
=81	=81	=81
8FF\ 8F\L	4f\] 4b-\] 4dd\] 4ff\]	.
8F\ 8B-\ 8d\J	.	.
4F\ 4A\ 4e-\	4f/ 4cc/	.
=82	=82	=82
8A-\ 8B-\ 8d\ 8f\L	16dd\LK	mp
.	8cc\	.
8A-\ 8B-\ 8d\ 8f\J	.	.
.	[16b-\Jk	.
8A-\ 8B-\ 8d\ 8f\L	(16b-\LL]	.
.	16cc\J	.
8A-\ 8B-\ 8d\ 8f\J	8b-\J)	.
=83	=83	=83
8G\ 8B-\ 8e-\L	16dd\LK	.
.	8cc\	.
8G\ 8B-\ 8e-\J	.	.
.	[16b-\Jk	.
8G-\ 8B-\ 8e-\L	(16b-\LL]	.
.	16cc\J	.
8G-\ 8B-\ 8e-\J	8b-\J)	.
=84	=84	=84
8F\ 8B-\ 8d\L	16b-\LK	.
.	8cc\	.
8F\ 8B-\ 8d\J	.	.
.	[16dd\Jk	.
8F\ 8B-\ 8d\L	(16dd\LL]	.
.	16gg\J	.
8F\ 8B-\ 8d\J	8ff\J)	.
=85	=85	=85
*>E1	*>E1	*>E1
8GG\ 8G\L	8en/ 8b-/L	.
8FF\ 8F\	8e-/ 8a/ 8cc/J	.
8BB-\ 8B-\	8d/ 8b-/	.
8BBB-\ 8BB-\J	8r	.
=86:|!	=86:|!	=86:|!
*>E2	*>E2	*>E2
8GG\ 8G\L	8en/ 8b-/L	.
8FF\ 8F\J	8e-/ 8a/ 8cc/J	.
8BB-\ 8B-\	8d/ 8b-/	.
==	==	==
*-	*-	*-
